examples/drill-downs/dashboard-app/public/assets/logo.svg

<svg width="231" height="29" fill="none" xmlns="http://www.w3.org/2000/svg">
  <path d="M26.1801 8.0378 14.0273 1v4.8696l12.1528 7.0076V8.0378Z" fill="#FF6492"/>
  <path d="m26.1791 12.8772-3.6458 2.1229-8.5092-4.919-4.862 2.8001-3.6465-1.9676 8.5108-5.044 12.1527 7.0076Z" fill="#141446"/>
  <path d="m9.1621 12.8811-3.6465-1.9675v4.0865l3.6465-2.119Z" fill="#A14474"/>
  <path d="M1.8691 21.9622 14.0241 15l12.1551 6.9622L14.0241 29l-12.155-7.0378Z" fill="#141446"/>
  <path d="m26.1804 17.1304-12.155-7.125V15l12.155 6.9621v-4.8317Z" fill="#FF6492"/>
  <path d="M5.5156 15v-4.0865l8.5108-5.044V1L1.8691 8.0378v13.9244L14.0241 15v-4.9946L5.5156 15Z" fill="#7A77FF"/>
  <path d="M119.149 15.0224c0-3.7152-2.765-6.48-6.538-6.48-4.118 0-7.315 3.2544-7.315 7.4016 0 4.176 3.226 7.3728 7.603 7.3728 2.247 0 4.147-.864 5.645-2.2752l-1.44-2.0736c-1.181 1.0368-2.477 1.6704-4.118 1.6704-2.42 0-4.205-1.3824-4.608-3.7152h10.54c.087-.3744.231-1.1232.231-1.9008Zm-6.653-3.9168c1.93 0 3.571 1.2384 3.629 3.456h-7.69c.461-2.1024 2.074-3.456 4.061-3.456ZM134.515 23l-5.27-7.3152 4.896-6.8256h-3.456l-3.14 4.6656-3.168-4.6656h-3.456l4.868 6.7968L120.547 23h3.456l3.514-5.184L131.059 23h3.456Zm7.773-14.4576c-2.39 0-4.493.9504-5.961 3.024l1.756 1.7856c1.124-1.3248 2.276-2.1024 3.917-2.1024 1.93 0 3.024 1.0656 3.024 3.024v.9216h-4.003c-3.168 0-5.213 1.5552-5.213 4.032 0 2.448 1.959 4.0896 4.925 4.0896 1.958 0 3.514-.6912 4.522-1.9008V23h2.822v-8.5536c0-3.9168-2.39-5.904-5.789-5.904Zm-.921 12.4416c-1.383 0-2.477-.6336-2.477-1.872 0-1.152.893-1.728 2.505-1.728h3.629v.2592c0 1.9296-1.67 3.3408-3.657 3.3408ZM168.27 8.5424c-2.074 0-3.773.9216-4.781 2.2176-.835-1.3536-2.275-2.2176-4.291-2.2176-1.7 0-3.111.6048-4.09 1.6416V8.8592h-2.822V23h3.024v-8.4096c0-1.9584 1.267-3.2832 3.11-3.2832 1.814 0 2.966 1.3248 2.966 3.2832V23h3.024v-8.5536c0-1.7856 1.268-3.1392 3.111-3.1392 1.843 0 2.937 1.3248 2.937 3.2832V23h3.053v-8.8416c0-3.312-1.901-5.616-5.241-5.616Zm17.188 0c-2.074 0-3.888.8352-4.925 2.304V8.8592h-2.822V28.184h3.024v-6.912c1.094 1.296 2.793 2.0448 4.723 2.0448 4.032 0 6.941-3.168 6.941-7.4016 0-4.2048-2.909-7.3728-6.941-7.3728Zm-.49 12.0096c-2.131 0-4.262-1.44-4.262-4.6368 0-3.2256 2.16-4.608 4.262-4.608 2.448 0 4.32 1.9008 4.32 4.6368 0 2.736-1.901 4.608-4.32 4.608ZM195.879 23h3.024V1.4h-3.024V23Zm20.357-7.9776c0-3.7152-2.765-6.48-6.537-6.48-4.119 0-7.316 3.2544-7.316 7.4016 0 4.176 3.226 7.3728 7.604 7.3728 2.246 0 4.147-.864 5.644-2.2752l-1.44-2.0736c-1.18 1.0368-2.476 1.6704-4.118 1.6704-2.419 0-4.205-1.3824-4.608-3.7152h10.541c.086-.3744.23-1.1232.23-1.9008Zm-6.653-3.9168c1.93 0 3.572 1.2384 3.629 3.456h-7.689c.46-2.1024 2.073-3.456 4.06-3.456Zm14.496 12.2112c2.822 0 5.241-1.4688 5.241-4.32 0-2.0736-1.296-3.1968-3.859-4.2624l-1.353-.5472c-1.296-.5472-1.872-.9216-1.872-1.6704 0-.9216.806-1.3536 1.929-1.3536 1.239 0 2.419.5184 3.312 1.44l1.642-1.872c-1.181-1.4112-2.851-2.1888-4.896-2.1888-2.794 0-4.983 1.4688-4.983 4.0896 0 2.1312 1.412 3.168 3.687 4.1184l1.44.6048c1.152.4608 1.987.8352 1.987 1.7568 0 1.0656-1.037 1.584-2.275 1.584-1.613 0-2.851-.8352-3.975-2.016l-1.728 1.9008c1.21 1.584 3.197 2.736 5.703 2.736Z" fill="#141446" fill-opacity=".3"/>
  <path d="M33.6602 15.6282c0-4.2094 3.3387-7.4847 7.5464-7.4847 2.6996 0 4.7883 1.3159 6.0081 3.3322l-2.1472 1.6955c-.9294-1.3158-2.119-2.193-3.8307-2.193-2.6129 0-4.4698 2.0468-4.4698 4.648 0 2.66 1.8569 4.6763 4.4698 4.6763 1.6835 0 2.873-.8467 3.8307-2.1625l2.1472 1.6671c-1.248 2.0163-3.3387 3.3321-6.0081 3.3321-4.2077.0021-7.5464-3.2732-7.5464-7.511ZM49.8555 16.7982V8.4668h3.0181v8.5649c0 2.0163 1.4214 3.2732 3.2218 3.2732 1.742 0 3.1352-1.2569 3.1352-3.2732V8.4668h3.0484v8.3314c0 3.8885-2.6997 6.3434-6.1815 6.3434-3.5424 0-6.242-2.4549-6.242-6.3434ZM80.7693 15.6567c0 4.2682-2.9314 7.4846-6.9657 7.4846-2.0908 0-3.9194-.8467-4.992-2.3087v1.9879h-2.8448V.8945h3.0484v9.3264c1.0746-1.3158 2.7863-2.0753 4.7601-2.0753 4.0626-.002 6.994 3.2429 6.994 7.5111Zm-3.1351-.0284c0-2.7778-1.9153-4.6764-4.3548-4.6764-2.1472 0-4.2964 1.462-4.2964 4.7068 0 3.2733 2.1774 4.6764 4.2964 4.6764 2.4677 0 4.3548-1.929 4.3548-4.7068ZM96.5308 16.6516H85.9077c.4072 2.3676 2.2056 3.7707 4.6432 3.7707 1.6552 0 2.9597-.6436 4.1512-1.6955l1.4516 2.1057c-1.5101 1.4316-3.4254 2.3088-5.6895 2.3088-4.4114 0-7.6634-3.2449-7.6634-7.4847 0-4.2093 3.2218-7.513 7.373-7.513 3.8025 0 6.5888 2.8062 6.5888 6.5769 0 .7899-.1451 1.5514-.2318 1.9311Zm-10.5647-2.3981h7.7501c-.0585-2.2519-1.7117-3.5088-3.6573-3.5088-2.004.002-3.629 1.3747-4.0928 3.5088Z" fill="#141446"/>
</svg>

<svg width="231" height="29" viewBox="0 0 231 29" fill="none" xmlns="http://www.w3.org/2000/svg">
<path d="M26.1801 8.03784L14.0273 1V5.86957L26.1801 12.8772L26.1801 8.03784Z" fill="#FF6492"/>
<path d="M26.1791 12.8772L22.5333 15.0001L14.0241 10.0811L9.16212 12.8812L5.51562 10.9136L14.0264 5.86963L26.1791 12.8772Z" fill="#141446"/>
<path d="M9.16212 12.8811L5.51562 10.9136V15.0001L9.16212 12.8811Z" fill="#A14474"/>
<path d="M1.86914 21.9622L14.0241 15L26.1792 21.9622L14.0241 29L1.86914 21.9622Z" fill="#141446"/>
<path d="M26.1804 17.1304L14.0254 10.0054V15L26.1804 21.9621L26.1804 17.1304Z" fill="#FF6492"/>
<path d="M5.51564 15V10.9135L14.0264 5.86957V1L1.86914 8.03784V21.9622L14.0241 15V10.0054L5.51564 15Z" fill="#7A77FF"/>
<path d="M119.149 15.0224C119.149 11.3072 116.384 8.5424 112.611 8.5424C108.493 8.5424 105.296 11.7968 105.296 15.944C105.296 20.12 108.522 23.3168 112.899 23.3168C115.146 23.3168 117.046 22.4528 118.544 21.0416L117.104 18.968C115.923 20.0048 114.627 20.6384 112.986 20.6384C110.566 20.6384 108.781 19.256 108.378 16.9232H118.918C119.005 16.5488 119.149 15.8 119.149 15.0224ZM112.496 11.1056C114.426 11.1056 116.067 12.344 116.125 14.5616H108.435C108.896 12.4592 110.509 11.1056 112.496 11.1056ZM134.515 23L129.245 15.6848L134.141 8.8592H130.685L127.545 13.5248L124.377 8.8592H120.921L125.789 15.656L120.547 23H124.003L127.517 17.816L131.059 23H134.515ZM142.288 8.5424C139.898 8.5424 137.795 9.4928 136.327 11.5664L138.083 13.352C139.207 12.0272 140.359 11.2496 142 11.2496C143.93 11.2496 145.024 12.3152 145.024 14.2736V15.1952H141.021C137.853 15.1952 135.808 16.7504 135.808 19.2272C135.808 21.6752 137.767 23.3168 140.733 23.3168C142.691 23.3168 144.247 22.6256 145.255 21.416V23H148.077V14.4464C148.077 10.5296 145.687 8.5424 142.288 8.5424ZM141.367 20.984C139.984 20.984 138.89 20.3504 138.89 19.112C138.89 17.96 139.783 17.384 141.395 17.384H145.024V17.6432C145.024 19.5728 143.354 20.984 141.367 20.984ZM168.27 8.5424C166.196 8.5424 164.497 9.464 163.489 10.76C162.654 9.4064 161.214 8.5424 159.198 8.5424C157.498 8.5424 156.087 9.1472 155.108 10.184V8.8592H152.286V23H155.31V14.5904C155.31 12.632 156.577 11.3072 158.42 11.3072C160.234 11.3072 161.386 12.632 161.386 14.5904V23H164.41V14.4464C164.41 12.6608 165.678 11.3072 167.521 11.3072C169.364 11.3072 170.458 12.632 170.458 14.5904V23H173.511V14.1584C173.511 10.8464 171.61 8.5424 168.27 8.5424ZM185.458 8.5424C183.384 8.5424 181.57 9.3776 180.533 10.8464V8.8592H177.711V28.184H180.735V21.272C181.829 22.568 183.528 23.3168 185.458 23.3168C189.49 23.3168 192.399 20.1488 192.399 15.9152C192.399 11.7104 189.49 8.5424 185.458 8.5424ZM184.968 20.552C182.837 20.552 180.706 19.112 180.706 15.9152C180.706 12.6896 182.866 11.3072 184.968 11.3072C187.416 11.3072 189.288 13.208 189.288 15.944C189.288 18.68 187.387 20.552 184.968 20.552ZM195.879 23H198.903V1.4H195.879V23ZM216.236 15.0224C216.236 11.3072 213.471 8.5424 209.699 8.5424C205.58 8.5424 202.383 11.7968 202.383 15.944C202.383 20.12 205.609 23.3168 209.987 23.3168C212.233 23.3168 214.134 22.4528 215.631 21.0416L214.191 18.968C213.011 20.0048 211.715 20.6384 210.073 20.6384C207.654 20.6384 205.868 19.256 205.465 16.9232H216.006C216.092 16.5488 216.236 15.8 216.236 15.0224ZM209.583 11.1056C211.513 11.1056 213.155 12.344 213.212 14.5616H205.523C205.983 12.4592 207.596 11.1056 209.583 11.1056ZM224.079 23.3168C226.901 23.3168 229.32 21.848 229.32 18.9968C229.32 16.9232 228.024 15.8 225.461 14.7344L224.108 14.1872C222.812 13.64 222.236 13.2656 222.236 12.5168C222.236 11.5952 223.042 11.1632 224.165 11.1632C225.404 11.1632 226.584 11.6816 227.477 12.6032L229.119 10.7312C227.938 9.32 226.268 8.5424 224.223 8.5424C221.429 8.5424 219.24 10.0112 219.24 12.632C219.24 14.7632 220.652 15.8 222.927 16.7504L224.367 17.3552C225.519 17.816 226.354 18.1904 226.354 19.112C226.354 20.1776 225.317 20.696 224.079 20.696C222.466 20.696 221.228 19.8608 220.104 18.68L218.376 20.5808C219.586 22.1648 221.573 23.3168 224.079 23.3168Z" fill="#141446" fill-opacity="0.3"/>
<path d="M33.6602 15.6282C33.6602 11.4188 36.9989 8.14355 41.2066 8.14355C43.9062 8.14355 45.9949 9.45936 47.2147 11.4757L45.0675 13.1712C44.1381 11.8554 42.9485 10.9782 41.2368 10.9782C38.6239 10.9782 36.767 13.025 36.767 15.6262C36.767 18.2862 38.6239 20.3025 41.2368 20.3025C42.9203 20.3025 44.1098 19.4558 45.0675 18.14L47.2147 19.8071C45.9667 21.8234 43.876 23.1392 41.2066 23.1392C36.9989 23.1413 33.6602 19.866 33.6602 15.6282Z" fill="#141446"/>
<path d="M49.8555 16.7982V8.4668H52.8736V17.0317C52.8736 19.048 54.295 20.3049 56.0954 20.3049C57.8374 20.3049 59.2306 19.048 59.2306 17.0317V8.4668H62.279V16.7982C62.279 20.6867 59.5793 23.1416 56.0975 23.1416C52.5551 23.1416 49.8555 20.6867 49.8555 16.7982Z" fill="#141446"/>
<path d="M80.7693 15.6567C80.7693 19.9249 77.8379 23.1413 73.8036 23.1413C71.7128 23.1413 69.8842 22.2946 68.8116 20.8326V22.8205H65.9668V0.894531H69.0152V10.2209C70.0898 8.90508 71.8015 8.14565 73.7753 8.14565C77.8379 8.14362 80.7693 11.3885 80.7693 15.6567ZM77.6342 15.6283C77.6342 12.8505 75.7189 10.9519 73.2794 10.9519C71.1322 10.9519 68.983 12.4139 68.983 15.6587C68.983 18.932 71.1604 20.3351 73.2794 20.3351C75.7471 20.3351 77.6342 18.4061 77.6342 15.6283Z" fill="#141446"/>
<path d="M96.5308 16.6516H85.9077C86.3149 19.0192 88.1133 20.4223 90.5509 20.4223C92.2061 20.4223 93.5106 19.7787 94.7021 18.7268L96.1537 20.8325C94.6436 22.2641 92.7283 23.1413 90.4642 23.1413C86.0528 23.1413 82.8008 19.8964 82.8008 15.6566C82.8008 11.4473 86.0226 8.14355 90.1738 8.14355C93.9763 8.14355 96.7626 10.9498 96.7626 14.7205C96.7626 15.5104 96.6175 16.2719 96.5308 16.6516ZM85.9661 14.2535H93.7162C93.6577 12.0016 92.0045 10.7447 90.0589 10.7447C88.0549 10.7467 86.4299 12.1194 85.9661 14.2535Z" fill="#141446"/>
</svg>
